public/logos/BG.svg

<?xml version="1.0" encoding="UTF-8"?>
<svg xmlns="http://www.w3.org/2000/svg" xmlns:xlink="http://www.w3.org/1999/xlink" width="176pt" height="48.78pt" viewBox="0 0 176 48.78" version="1.1">
<defs>
<clipPath id="clip1">
  <path d="M 0 0 L 49 0 L 49 48.78125 L 0 48.78125 Z M 0 0 "/>
</clipPath>
</defs>
<g id="surface1">
<path style=" stroke:none;fill-rule:nonzero;fill:rgb(22.833252%,44.438171%,32.055664%);fill-opacity:1;" d="M 63.296875 33.074219 L 66.984375 25.292969 L 68.828125 25.292969 L 70.054688 33.074219 L 68.457031 33.074219 L 68.210938 31.175781 L 65.753906 31.175781 L 64.769531 33.074219 Z M 60.46875 29.566406 L 59.238281 29.566406 L 58.75 31.792969 L 60.46875 31.792969 C 60.839844 31.792969 61.207031 31.699219 61.453125 31.460938 C 61.699219 31.222656 61.820312 30.988281 61.820312 30.609375 C 61.820312 30.273438 61.699219 30.039062 61.453125 29.894531 C 61.207031 29.660156 61.082031 29.566406 60.46875 29.566406 Z M 62.3125 27.429688 C 62.3125 27.144531 62.066406 26.90625 61.820312 26.8125 C 61.699219 26.667969 61.453125 26.574219 61.082031 26.574219 L 59.609375 26.574219 L 59.363281 28.472656 L 60.839844 28.472656 C 61.207031 28.472656 61.699219 28.378906 61.820312 28.140625 C 62.066406 27.996094 62.3125 27.761719 62.3125 27.429688 Z M 63.296875 25.769531 C 63.664062 26.101562 63.910156 26.574219 63.910156 27.191406 C 63.910156 27.667969 63.664062 28.09375 63.542969 28.378906 C 63.050781 28.710938 62.679688 28.945312 62.3125 29.042969 C 62.679688 29.183594 62.925781 29.421875 63.050781 29.753906 C 63.296875 30.039062 63.542969 30.464844 63.542969 30.84375 C 63.542969 31.554688 63.296875 32.125 62.925781 32.503906 C 62.3125 32.886719 61.699219 33.074219 60.59375 33.074219 L 56.90625 33.074219 L 58.132812 25.292969 L 61.207031 25.292969 C 62.3125 25.292969 62.925781 25.484375 63.296875 25.769531 Z M 67.597656 26.8125 L 66.121094 29.894531 L 67.964844 29.894531 Z M 78.042969 25.292969 L 76.570312 33.074219 L 75.339844 33.074219 L 72.761719 27.382812 L 71.652344 33.074219 L 70.425781 33.074219 L 71.898438 25.292969 L 73.496094 25.292969 L 75.832031 30.464844 L 76.570312 25.292969 Z M 84.191406 25.769531 C 84.804688 26.195312 85.050781 26.8125 85.171875 27.523438 L 83.820312 27.855469 C 83.574219 27.429688 83.328125 27.144531 83.207031 26.90625 C 82.960938 26.667969 82.59375 26.480469 82.101562 26.480469 L 81.484375 26.71875 L 80.871094 27.382812 C 80.75 27.667969 80.503906 28.09375 80.503906 28.566406 L 80.257812 29.992188 C 80.257812 30.515625 80.503906 30.988281 80.75 31.320312 C 80.871094 31.699219 81.117188 31.890625 81.730469 31.890625 C 82.101562 31.890625 82.59375 31.699219 82.714844 31.414062 C 82.960938 31.175781 83.207031 30.703125 83.207031 30.132812 L 81.730469 30.132812 L 81.976562 28.945312 L 85.050781 28.945312 L 84.433594 33.074219 L 83.574219 33.074219 L 83.328125 32.175781 C 83.207031 32.503906 82.960938 32.742188 82.59375 32.886719 C 82.101562 33.125 81.730469 33.21875 81.363281 33.21875 C 80.503906 33.21875 79.886719 32.886719 79.273438 32.269531 C 78.660156 31.652344 78.414062 30.84375 78.414062 29.800781 L 78.90625 27.855469 C 79.027344 27.191406 79.273438 26.667969 79.886719 26.195312 L 80.871094 25.484375 C 81.363281 25.246094 81.730469 25.152344 82.347656 25.152344 C 82.960938 25.152344 83.574219 25.386719 84.191406 25.769531 Z M 73.496094 11.011719 L 77.675781 11.011719 L 75.585938 21.261719 L 71.53125 21.261719 Z M 60.839844 18.273438 L 63.050781 18.273438 C 63.910156 18.273438 64.523438 18.128906 64.894531 17.796875 C 65.140625 17.558594 65.386719 17.226562 65.507812 16.753906 C 65.753906 16.375 65.507812 15.996094 65.386719 15.757812 C 65.140625 15.519531 64.523438 15.328125 63.664062 15.328125 L 61.207031 15.328125 Z M 62.3125 9.96875 L 61.820312 12.671875 L 63.910156 12.671875 C 64.523438 12.671875 65.140625 12.578125 65.386719 12.339844 C 65.753906 12.105469 66 11.722656 66 11.296875 C 66.121094 10.917969 66 10.585938 65.753906 10.347656 C 65.507812 10.109375 64.894531 9.96875 64.28125 9.96875 Z M 74.113281 7.121094 L 78.289062 7.121094 L 77.796875 9.824219 L 73.742188 9.824219 Z M 58.132812 7.121094 L 66.738281 7.121094 C 68.210938 7.121094 69.195312 7.453125 69.808594 8.164062 C 70.425781 8.878906 70.914062 9.636719 70.671875 10.679688 C 70.425781 11.535156 70.054688 12.246094 69.441406 12.816406 C 68.828125 13.195312 68.210938 13.527344 67.597656 13.765625 C 68.582031 14 69.195312 14.382812 69.6875 15.046875 C 70.054688 15.566406 70.300781 16.375 70.054688 17.226562 C 69.808594 17.941406 69.6875 18.652344 69.074219 19.222656 C 68.582031 19.789062 67.964844 20.265625 67.351562 20.644531 C 66.984375 20.882812 66.367188 21.023438 65.507812 21.117188 L 63.542969 21.261719 L 55.550781 21.261719 Z M 94.882812 26.8125 L 93.40625 29.894531 L 95.25 29.894531 Z M 90.703125 32.601562 L 94.269531 25.292969 L 96.109375 25.292969 L 97.339844 33.074219 L 95.621094 33.074219 L 95.496094 31.175781 L 92.792969 31.175781 L 91.933594 33.074219 L 85.664062 33.074219 L 87.015625 25.292969 L 88.738281 25.292969 L 87.632812 31.652344 L 90.949219 31.652344 Z M 101.394531 26.71875 L 100.535156 26.71875 L 99.554688 31.652344 L 100.78125 31.652344 C 101.394531 31.652344 102.011719 31.414062 102.378906 30.941406 C 102.871094 30.371094 102.992188 29.660156 102.992188 28.804688 C 102.992188 28.09375 102.871094 27.617188 102.625 27.191406 C 102.378906 26.90625 102.011719 26.71875 101.394531 26.71875 Z M 104.839844 28.804688 C 104.839844 29.515625 104.714844 30.226562 104.46875 30.84375 C 104.222656 31.460938 103.855469 31.9375 103.238281 32.363281 C 102.992188 32.601562 102.625 32.839844 102.257812 32.886719 L 101.027344 33.074219 L 97.710938 33.074219 L 98.9375 25.292969 L 101.394531 25.292969 L 102.378906 25.386719 L 103.238281 25.625 C 103.855469 25.863281 104.222656 26.242188 104.46875 26.8125 C 104.714844 27.382812 104.839844 27.996094 104.839844 28.804688 Z M 111.84375 26.574219 L 108.15625 26.574219 L 107.785156 28.378906 L 110.984375 28.378906 L 110.859375 29.660156 L 107.542969 29.660156 L 107.296875 31.652344 L 111.230469 31.652344 L 110.984375 33.074219 L 105.328125 33.074219 L 106.683594 25.292969 L 112.089844 25.292969 Z M 117.621094 25.71875 C 118.234375 26.101562 118.355469 26.480469 118.605469 27.050781 L 117.128906 27.523438 C 117.003906 27.144531 116.761719 26.90625 116.515625 26.71875 C 116.390625 26.480469 115.898438 26.433594 115.53125 26.433594 L 114.671875 26.667969 L 114.546875 27.289062 C 114.546875 27.667969 114.914062 27.996094 115.777344 28.332031 L 116.390625 28.566406 C 117.003906 28.804688 117.621094 29.042969 117.742188 29.421875 C 117.988281 29.800781 118.234375 30.226562 118.234375 30.703125 C 118.234375 31.414062 117.988281 32.03125 117.375 32.503906 C 116.761719 32.980469 116.144531 33.21875 115.160156 33.21875 C 114.300781 33.21875 113.441406 32.980469 112.824219 32.601562 C 112.210938 32.175781 112.089844 31.699219 111.84375 30.988281 L 113.316406 30.609375 C 113.441406 30.988281 113.6875 31.222656 114.054688 31.460938 C 114.300781 31.699219 114.671875 31.792969 115.285156 31.792969 C 115.53125 31.792969 115.898438 31.699219 116.144531 31.554688 C 116.390625 31.414062 116.515625 31.175781 116.515625 30.84375 C 116.515625 30.464844 116.144531 30.132812 115.160156 29.800781 L 114.671875 29.660156 C 114.054688 29.421875 113.441406 29.089844 113.316406 28.804688 C 113.074219 28.378906 112.824219 27.996094 112.824219 27.523438 C 112.824219 26.8125 113.074219 26.242188 113.441406 25.769531 C 114.054688 25.386719 114.671875 25.152344 115.53125 25.152344 C 116.144531 25.152344 117.003906 25.292969 117.621094 25.71875 Z M 121.308594 29.660156 L 120.691406 33.074219 L 118.972656 33.074219 L 120.199219 25.292969 L 121.921875 25.292969 L 121.429688 28.332031 L 124.132812 28.332031 L 124.503906 25.292969 L 126.347656 25.292969 L 124.996094 33.074219 L 123.273438 33.074219 L 123.765625 29.660156 Z M 134.335938 25.292969 L 135.5625 33.074219 L 133.96875 33.074219 L 133.71875 31.175781 L 131.261719 31.175781 L 130.277344 33.074219 L 129.050781 33.074219 L 132.492188 25.292969 Z M 133.105469 26.8125 L 131.753906 29.894531 L 133.597656 29.894531 Z M 139.25 25.292969 L 137.898438 33.074219 L 136.054688 33.074219 L 137.40625 25.292969 Z M 144.414062 26.71875 C 144.167969 26.574219 143.800781 26.480469 143.429688 26.480469 L 142.199219 26.480469 L 141.710938 28.710938 L 143.183594 28.710938 C 143.554688 28.710938 144.042969 28.617188 144.167969 28.378906 C 144.414062 28.140625 144.660156 27.902344 144.660156 27.523438 C 144.660156 27.191406 144.660156 26.957031 144.414062 26.71875 Z M 146.503906 27.523438 C 146.503906 28.09375 146.257812 28.472656 146.011719 28.851562 C 145.640625 29.277344 145.273438 29.515625 144.78125 29.660156 L 145.640625 33.074219 L 144.042969 33.074219 L 143.183594 29.894531 L 141.585938 29.894531 L 140.972656 33.074219 L 139.496094 33.074219 L 140.726562 25.292969 L 143.800781 25.292969 C 144.660156 25.292969 145.273438 25.484375 145.886719 25.863281 C 146.257812 26.242188 146.503906 26.8125 146.503906 27.523438 Z M 152.402344 33.074219 L 153.878906 25.292969 L 155.722656 25.292969 L 154.246094 33.074219 Z M 152.035156 31.652344 L 151.785156 33.074219 L 146.625 33.074219 L 147.855469 25.292969 L 149.699219 25.292969 L 148.46875 31.652344 Z M 163.21875 25.292969 L 161.988281 33.074219 L 160.636719 33.074219 L 158.179688 27.382812 L 157.070312 33.074219 L 155.84375 33.074219 L 157.070312 25.292969 L 158.792969 25.292969 L 161.25 30.464844 L 161.988281 25.292969 Z M 169.976562 26.574219 L 166.289062 26.574219 L 165.921875 28.378906 L 169.238281 28.378906 L 168.992188 29.660156 L 165.675781 29.660156 L 165.308594 31.652344 L 169.363281 31.652344 L 169.238281 33.074219 L 163.464844 33.074219 L 164.9375 25.292969 L 170.222656 25.292969 Z M 176 27.269531 L 175.140625 27.523438 C 175.140625 27.144531 174.894531 26.90625 174.769531 26.71875 C 174.523438 26.480469 174.15625 26.433594 173.664062 26.433594 C 173.296875 26.433594 173.050781 26.480469 172.929688 26.667969 L 172.679688 27.289062 C 172.679688 27.667969 173.050781 27.996094 173.910156 28.332031 L 174.523438 28.566406 C 175.140625 28.804688 175.507812 29.042969 176 29.421875 Z M 176 31.992188 C 175.871094 32.175781 175.710938 32.347656 175.507812 32.503906 C 174.894531 32.980469 174.28125 33.21875 173.296875 33.21875 C 172.3125 33.21875 171.699219 32.980469 171.085938 32.601562 C 170.46875 32.175781 169.976562 31.699219 169.855469 30.988281 L 171.453125 30.609375 C 171.699219 30.988281 171.820312 31.222656 172.3125 31.460938 C 172.4375 31.699219 172.929688 31.792969 173.539062 31.792969 C 173.664062 31.792969 174.15625 31.699219 174.28125 31.554688 C 174.523438 31.414062 174.523438 31.175781 174.523438 30.84375 C 174.523438 30.464844 174.15625 30.132812 173.296875 29.800781 L 172.929688 29.660156 C 172.3125 29.421875 171.699219 29.089844 171.453125 28.804688 C 171.085938 28.378906 170.839844 27.996094 170.839844 27.523438 C 170.839844 26.8125 171.085938 26.242188 171.699219 25.769531 C 172.3125 25.386719 172.929688 25.152344 173.664062 25.152344 C 174.28125 25.152344 174.894531 25.292969 175.507812 25.71875 C 175.683594 25.832031 175.847656 25.941406 176 26.050781 Z M 112.824219 21.261719 L 114.671875 11.011719 L 118.605469 11.011719 L 118.234375 12.722656 C 118.847656 12.007812 119.585938 11.535156 120.199219 11.25 C 120.816406 10.917969 121.675781 10.773438 122.535156 10.773438 C 123.519531 10.773438 124.378906 11.058594 124.996094 11.773438 C 125.609375 12.4375 125.609375 13.433594 125.363281 14.808594 L 124.132812 21.261719 L 120.078125 21.261719 L 121.0625 15.664062 C 121.308594 15.046875 121.0625 14.570312 120.816406 14.238281 C 120.691406 14 120.445312 13.859375 120.078125 13.859375 C 119.464844 13.859375 118.972656 14 118.605469 14.382812 C 118.234375 14.808594 117.988281 15.425781 117.742188 16.375 L 117.003906 21.261719 Z M 107.171875 16.46875 L 105.328125 16.945312 C 104.46875 17.179688 103.855469 17.324219 103.609375 17.558594 L 103.238281 18.273438 C 102.992188 18.605469 103.238281 18.839844 103.484375 19.078125 C 103.609375 19.222656 103.855469 19.316406 104.222656 19.316406 C 104.839844 19.316406 105.328125 19.222656 105.699219 18.984375 C 106.066406 18.746094 106.558594 18.507812 106.683594 18.273438 C 106.925781 17.941406 106.925781 17.558594 107.171875 16.992188 Z M 97.710938 14.855469 L 96.480469 21.261719 L 92.425781 21.261719 L 93.40625 15.425781 C 93.652344 14.949219 93.652344 14.617188 93.40625 14.382812 C 93.160156 14 93.039062 13.859375 92.425781 13.859375 C 91.933594 13.859375 91.5625 14 91.195312 14.382812 C 90.949219 14.714844 90.703125 15.28125 90.582031 15.996094 L 89.476562 21.261719 L 85.417969 21.261719 L 86.402344 15.664062 C 86.648438 15.1875 86.648438 14.855469 86.402344 14.714844 C 86.402344 14.476562 86.402344 14.238281 86.28125 14.097656 L 85.417969 13.859375 C 85.050781 13.859375 84.558594 14 84.191406 14.382812 C 83.820312 14.714844 83.574219 15.28125 83.328125 16.042969 L 82.347656 21.261719 L 78.289062 21.261719 L 80.257812 11.011719 L 84.191406 11.011719 L 83.820312 12.484375 C 84.433594 11.867188 85.171875 11.390625 85.789062 11.15625 C 86.402344 10.917969 87.015625 10.773438 87.878906 10.773438 C 88.738281 10.773438 89.351562 10.917969 89.71875 11.25 C 90.335938 11.488281 90.582031 11.960938 90.703125 12.484375 C 91.5625 11.867188 92.179688 11.390625 92.792969 11.15625 C 93.40625 10.917969 94.023438 10.773438 94.882812 10.773438 C 95.867188 10.773438 96.726562 11.058594 97.339844 11.773438 C 97.957031 12.4375 97.957031 13.433594 97.710938 14.855469 Z M 102.378906 11.390625 L 104.101562 11.011719 L 106.3125 10.773438 L 109.140625 11.011719 C 110 11.058594 110.613281 11.390625 110.984375 11.773438 C 111.230469 12.105469 111.472656 12.484375 111.597656 13.050781 L 111.597656 14.570312 L 110.859375 19.078125 C 110.613281 19.601562 110.613281 20.027344 110.613281 20.265625 L 110.859375 21.261719 L 106.925781 21.261719 L 106.683594 20.738281 L 106.683594 20.027344 C 106.066406 20.550781 105.453125 20.882812 104.839844 21.117188 C 104.222656 21.355469 103.484375 21.5 102.378906 21.5 C 101.027344 21.5 100.167969 21.214844 99.554688 20.644531 C 98.9375 20.074219 98.691406 19.457031 98.9375 18.605469 C 99.183594 17.796875 99.308594 17.179688 99.921875 16.707031 C 100.535156 16.136719 101.640625 15.757812 102.871094 15.519531 L 106.066406 14.855469 L 107.542969 14.476562 C 107.785156 13.90625 107.785156 13.621094 107.542969 13.433594 C 107.296875 13.195312 106.925781 13.148438 106.558594 13.148438 C 105.945312 13.148438 105.328125 13.195312 104.839844 13.433594 C 104.714844 13.621094 104.222656 13.90625 104.101562 14.332031 L 100.167969 13.90625 C 100.414062 13.289062 100.78125 12.816406 101.152344 12.4375 L 102.378906 11.390625 "/>
<g clip-path="url(#clip1)" clip-rule="nonzero">
<path style=" stroke:none;fill-rule:nonzero;fill:rgb(88.595581%,13.235474%,14.227295%);fill-opacity:1;" d="M 29.867188 23.632812 L 32.324219 26.007812 C 32.9375 26.667969 34.042969 26.667969 35.027344 26.007812 L 40.558594 22.304688 L 39.082031 20.976562 L 46.949219 20.976562 L 35.273438 29.328125 C 33.796875 30.132812 32.816406 30.226562 31.957031 29.515625 C 30.972656 28.804688 30.480469 28.378906 30.480469 28.472656 C 29.742188 27.429688 28.636719 27.289062 27.285156 27.996094 L 20.03125 33.359375 L 7.128906 33.359375 L 19.417969 24.109375 L 1.476562 24.203125 L 3.933594 21.832031 L 26.671875 21.832031 C 27.898438 21.6875 28.882812 22.304688 29.867188 23.632812 Z M 7.003906 7.21875 C 9.21875 4.890625 11.921875 3.183594 14.75 1.902344 C 17.820312 0.621094 20.894531 0.00390625 24.210938 0.00390625 C 27.40625 0.00390625 30.480469 0.621094 33.554688 1.902344 C 36.503906 3.183594 39.082031 4.890625 41.417969 7.21875 C 43.632812 9.398438 45.230469 12.007812 46.457031 14.949219 C 47.6875 17.941406 48.300781 21.117188 48.300781 24.441406 C 48.300781 27.667969 47.6875 30.84375 46.457031 33.929688 C 45.230469 36.871094 43.632812 39.386719 41.417969 41.664062 C 39.082031 43.988281 36.503906 45.695312 33.554688 46.882812 C 30.480469 48.164062 27.40625 48.78125 24.210938 48.78125 C 20.894531 48.78125 17.820312 48.164062 14.75 46.882812 C 11.921875 45.695312 9.21875 43.988281 7.003906 41.664062 C 4.671875 39.386719 3.074219 36.871094 1.84375 33.929688 C 0.613281 30.84375 0 27.667969 0 24.441406 C 0 21.117188 0.613281 17.941406 1.84375 14.949219 C 3.074219 12.007812 4.671875 9.398438 7.003906 7.21875 "/>
</g>
<path style=" stroke:none;fill-rule:nonzero;fill:rgb(100%,100%,100%);fill-opacity:1;" d="M 29.867188 23.632812 L 32.324219 26.007812 C 32.9375 26.667969 34.042969 26.667969 35.027344 26.007812 L 40.558594 22.304688 L 39.082031 20.976562 L 46.949219 20.976562 L 35.273438 29.328125 C 33.796875 30.132812 32.816406 30.226562 31.957031 29.515625 C 30.972656 28.804688 30.480469 28.378906 30.480469 28.472656 C 29.742188 27.429688 28.636719 27.289062 27.285156 27.996094 L 20.03125 33.359375 L 7.128906 33.359375 L 19.417969 24.109375 L 1.476562 24.203125 L 3.933594 21.832031 L 26.671875 21.832031 C 27.898438 21.6875 28.882812 22.304688 29.867188 23.632812 "/>
</g>
</svg>

<svg xmlns="http://www.w3.org/2000/svg" width="176pt" height="65.04" viewBox="0 0 176 48.78"><defs><clipPath id="a"><path d="M0 0h49v48.781H0Zm0 0"/></clipPath></defs><path d="m63.297 33.074 3.687-7.781h1.844l1.227 7.781h-1.598l-.246-1.898h-2.457l-.984 1.898Zm-2.828-3.508h-1.23l-.489 2.227h1.719c.37 0 .738-.094.984-.332s.367-.473.367-.852c0-.336-.12-.57-.367-.714-.246-.235-.371-.329-.984-.329m1.843-2.136c0-.285-.246-.524-.492-.617-.12-.145-.367-.239-.738-.239h-1.473l-.246 1.899h1.477c.367 0 .86-.094.98-.332.246-.145.492-.38.492-.711m.985-1.66c.367.332.613.804.613 1.421 0 .477-.246.903-.367 1.188-.492.332-.863.566-1.23.664q.55.212.738.71c.246.286.492.712.492 1.09 0 .712-.246 1.282-.617 1.66-.614.384-1.227.571-2.332.571h-3.688l1.227-7.781h3.074c1.105 0 1.719.191 2.09.477m4.3 1.043-1.476 3.082h1.844Zm10.446-1.52-1.473 7.781h-1.23l-2.578-5.691-1.11 5.691h-1.226l1.472-7.781h1.598l2.336 5.172.738-5.172Zm6.148.477c.614.425.86 1.043.98 1.753l-1.35.332c-.247-.425-.493-.71-.614-.949a1.55 1.55 0 0 0-1.105-.426l-.618.239-.613.664c-.121.285-.367.71-.367 1.183l-.246 1.426c0 .524.246.996.492 1.328.121.38.367.57.98.57.372 0 .864-.19.985-.476.246-.238.492-.71.492-1.281H81.73l.247-1.188h3.074l-.617 4.13h-.86l-.246-.9q-.183.494-.734.712c-.492.238-.864.332-1.23.332-.86 0-1.477-.332-2.09-.95-.614-.617-.86-1.425-.86-2.468l.492-1.946c.121-.664.367-1.187.98-1.66l.985-.71c.492-.239.86-.333 1.477-.333.613 0 1.226.235 1.843.618M73.496 11.012h4.18l-2.09 10.25H71.53ZM60.84 18.273h2.21c.86 0 1.473-.144 1.845-.476.246-.238.492-.57.613-1.043.246-.379 0-.758-.121-.996-.246-.238-.864-.43-1.723-.43h-2.457Zm1.472-8.304-.492 2.703h2.09c.613 0 1.23-.094 1.477-.332.367-.235.613-.617.613-1.043a.89.89 0 0 0-.246-.95c-.246-.238-.86-.378-1.473-.378ZM74.114 7.12h4.176l-.492 2.703h-4.055Zm-15.98 0h8.605c1.473 0 2.457.332 3.07 1.043.618.715 1.106 1.473.864 2.516-.246.855-.617 1.566-1.23 2.136-.614.38-1.231.711-1.844.95.984.234 1.597.617 2.09 1.28.367.52.613 1.329.367 2.18-.246.715-.368 1.426-.98 1.997-.493.566-1.11 1.043-1.723 1.422-.368.238-.985.378-1.844.472l-1.965.145h-7.992Zm36.75 19.692-1.477 3.082h1.844Zm-4.18 5.789 3.567-7.309h1.84l1.23 7.781H95.62l-.125-1.898h-2.703l-.86 1.898h-6.269l1.352-7.781h1.722l-1.105 6.36h3.316Zm10.692-5.883h-.86l-.98 4.933h1.226c.614 0 1.23-.238 1.598-.71.492-.57.613-1.282.613-2.137 0-.711-.12-1.188-.367-1.614-.246-.285-.613-.472-1.23-.472m3.445 2.086c0 .71-.125 1.422-.371 2.039s-.614 1.093-1.23 1.52c-.247.238-.614.476-.981.523l-1.23.187H97.71l1.227-7.781h2.457l.984.094.86.238c.616.238.984.617 1.23 1.188.246.57.37 1.183.37 1.992m7.004-2.23h-3.688l-.37 1.804h3.198l-.125 1.281h-3.316l-.246 1.992h3.933l-.246 1.422h-5.656l1.356-7.781h5.406Zm5.777-.856c.613.383.734.761.984 1.332l-1.476.472c-.125-.378-.367-.617-.613-.804-.125-.239-.618-.285-.985-.285l-.86.234-.124.621c0 .379.367.707 1.23 1.043l.614.234c.613.239 1.23.477 1.351.856.246.379.492.805.492 1.281 0 .711-.246 1.328-.859 1.8-.613.477-1.23.716-2.215.716-.86 0-1.719-.239-2.336-.617-.613-.426-.734-.903-.98-1.614l1.472-.379c.125.38.371.614.739.852.246.238.617.332 1.23.332.246 0 .613-.094.86-.238.246-.14.37-.38.37-.711 0-.38-.37-.711-1.355-1.043l-.488-.14c-.617-.24-1.23-.571-1.356-.856-.242-.426-.492-.809-.492-1.282 0-.71.25-1.28.617-1.753.614-.383 1.23-.618 2.09-.618.614 0 1.473.141 2.09.567m3.688 3.941-.618 3.414h-1.718l1.226-7.781h1.723l-.492 3.039h2.703l.37-3.039h1.845l-1.352 7.781h-1.723l.493-3.414Zm13.027-4.367 1.226 7.781h-1.593l-.25-1.898h-2.457l-.985 1.898h-1.226l3.441-7.781Zm-1.23 1.52-1.352 3.082h1.844Zm6.144-1.52-1.352 7.781h-1.843l1.351-7.781Zm5.164 1.426c-.246-.145-.613-.239-.984-.239h-1.23l-.49 2.23h1.474c.37 0 .859-.093.984-.331.246-.238.492-.477.492-.856 0-.332 0-.566-.246-.804m2.09.804c0 .57-.246.95-.492 1.329-.371.425-.739.664-1.23.808l.859 3.414h-1.598l-.86-3.18h-1.597l-.613 3.18h-1.477l1.23-7.781h3.075c.86 0 1.472.191 2.086.57.37.38.617.95.617 1.66m5.898 5.551 1.477-7.781h1.844l-1.477 7.781Zm-.367-1.422-.25 1.422h-5.16l1.23-7.781h1.844l-1.23 6.36Zm11.184-6.359-1.23 7.781h-1.352l-2.457-5.691-1.11 5.691h-1.226l1.226-7.781h1.723l2.457 5.172.738-5.172Zm6.758 1.281h-3.688l-.367 1.805h3.316l-.246 1.281h-3.316l-.367 1.992h4.054l-.125 1.422h-5.773l1.472-7.781h5.286Zm6.023.696-.86.253c0-.378-.245-.617-.37-.804-.247-.239-.614-.285-1.106-.285-.367 0-.613.046-.734.234l-.25.621c0 .379.37.707 1.23 1.043l.613.234c.618.239.985.477 1.477.856Zm0 4.722a2.3 2.3 0 0 1-.492.512c-.613.476-1.227.715-2.211.715s-1.598-.239-2.211-.617c-.617-.426-1.11-.903-1.23-1.614l1.597-.379c.246.38.367.614.86.852.125.238.617.332 1.226.332.125 0 .617-.094.742-.238.242-.14.242-.38.242-.711 0-.38-.367-.711-1.226-1.043l-.367-.14c-.618-.24-1.23-.571-1.477-.856-.367-.426-.613-.809-.613-1.282 0-.71.246-1.28.86-1.753.613-.383 1.23-.618 1.964-.618.617 0 1.23.141 1.844.567q.264.168.492.332Zm-63.176-10.73 1.848-10.25h3.933l-.37 1.71a5.9 5.9 0 0 1 1.964-1.472c.617-.332 1.477-.477 2.336-.477.985 0 1.844.286 2.461 1 .613.665.613 1.66.367 3.036l-1.23 6.453h-4.055l.984-5.598c.247-.617 0-1.094-.246-1.426-.125-.238-.37-.379-.738-.379-.613 0-1.105.141-1.473.524-.37.426-.617 1.043-.863 1.992l-.738 4.887Zm-5.652-4.793-1.844.476c-.86.235-1.473.38-1.719.614l-.37.714c-.247.332 0 .567.245.805.125.145.371.238.739.238.617 0 1.105-.093 1.476-.332.367-.238.86-.476.985-.71.242-.333.242-.715.488-1.282Zm-9.461-1.614-1.23 6.407h-4.055l.98-5.836c.246-.477.246-.809 0-1.043-.246-.383-.367-.524-.98-.524-.492 0-.864.141-1.23.524-.247.332-.493.898-.614 1.613l-1.105 5.266h-4.059l.984-5.598c.246-.476.246-.809 0-.95 0-.237 0-.476-.12-.616l-.864-.239c-.367 0-.86.141-1.227.524-.37.332-.617.898-.863 1.66l-.98 5.219h-4.059l1.969-10.25h3.933l-.37 1.472c.613-.617 1.35-1.093 1.968-1.328a5.4 5.4 0 0 1 2.09-.383c.86 0 1.473.145 1.84.477.617.238.863.71.984 1.234.86-.617 1.477-1.093 2.09-1.328a5.4 5.4 0 0 1 2.09-.383c.984 0 1.844.286 2.457 1 .617.665.617 1.66.37 3.082m4.668-3.464 1.723-.38 2.21-.238 2.829.239c.859.047 1.472.379 1.843.761.246.332.489.711.614 1.278v1.52l-.739 4.507c-.246.524-.246.95-.246 1.188l.246.996h-3.933l-.242-.524v-.71a6.2 6.2 0 0 1-1.844 1.09c-.617.237-1.356.382-2.461.382-1.352 0-2.211-.285-2.824-.855-.618-.57-.864-1.188-.618-2.04.247-.808.372-1.425.985-1.898.613-.57 1.719-.95 2.95-1.187l3.194-.665 1.477-.378c.242-.57.242-.856 0-1.043-.246-.239-.617-.286-.984-.286-.614 0-1.23.047-1.72.286-.124.187-.616.472-.737.898l-3.934-.426c.246-.617.613-1.09.984-1.469z" style="stroke:none;fill-rule:nonzero;fill:#3a7152;fill-opacity:1"/><g clip-path="url(#a)"><path d="m29.867 23.633 2.457 2.375c.614.66 1.719.66 2.703 0l5.532-3.703-1.477-1.328h7.867l-11.676 8.351c-1.476.805-2.457.899-3.316.188-.984-.711-1.477-1.137-1.477-1.043-.738-1.043-1.843-1.184-3.195-.477l-7.254 5.363H7.13l12.289-9.25-17.941.094 2.457-2.371h22.738c1.226-.145 2.21.473 3.195 1.8M7.004 7.219c2.215-2.328 4.918-4.035 7.746-5.317A24 24 0 0 1 24.21.004c3.196 0 6.27.617 9.345 1.898 2.949 1.282 5.527 2.989 7.863 5.317 2.215 2.18 3.812 4.789 5.039 7.73 1.23 2.992 1.844 6.168 1.844 9.492 0 3.227-.614 6.403-1.844 9.489-1.227 2.941-2.824 5.457-5.039 7.734-2.336 2.324-4.914 4.031-7.863 5.219-3.075 1.281-6.149 1.898-9.344 1.898-3.316 0-6.39-.617-9.461-1.898-2.828-1.188-5.531-2.895-7.746-5.219-2.332-2.277-3.93-4.793-5.16-7.734C.614 30.844 0 27.668 0 24.44c0-3.324.613-6.5 1.844-9.492 1.23-2.941 2.828-5.55 5.16-7.73" style="stroke:none;fill-rule:nonzero;fill:#e22224;fill-opacity:1"/></g><path d="m29.867 23.633 2.457 2.375c.614.66 1.719.66 2.703 0l5.532-3.703-1.477-1.328h7.867l-11.676 8.351c-1.476.805-2.457.899-3.316.188-.984-.711-1.477-1.137-1.477-1.043-.738-1.043-1.843-1.184-3.195-.477l-7.254 5.363H7.13l12.289-9.25-17.941.094 2.457-2.371h22.738c1.226-.145 2.21.473 3.195 1.8" style="stroke:none;fill-rule:nonzero;fill:#fff;fill-opacity:1"/></svg>
